!!!COM: Haydn, Franz Joseph
!!!OPR: String Quartet in A Major
!!!ONM: Opus 20, No. 6
!!!OTL: Affettuoso 
!!!OMV: 2
!!!SCT: H III:36
!!!SCA: Thematisch-bibliographisches Werkevererzeichnis (A. van Hoboken)
!!!YOR: Richault Edition, volume 4
!!!EED: Frances Bennion
!!!ENC: Frances Bennion
!!!CDT: 1732/3/31/-1809/5/31/
!!!OCY: Österreich
!!!YEC: Copyright (c) 1994, 2000 Center for Computer Assisted Research in the Humanities
!!!YEM: Rights to all derivative editions reserved.
!!!YEM: Refer to licensing agreement for further details.
!!!YEN: United States of America
**kern	**kern	**kern	**kern
*k[f#c#g#d#]	*k[f#c#g#d#]	*k[f#c#g#d#]	*k[f#c#g#d#]
*E:	*E:	*E:	*E:
*clefF	*clefF	*clefC3	*clefF4
*M4/4	*M4/4	*M4/4	*M4/4
*tb96	*tb96	*tb96	*tb96
=1	=1	=1	=1
2.b	8r	8r	4E
.	8g#	8B	.
.	8r	8r	4G#
.	8b	8B	.
.	8r	8r	4F#
.	8a	8d#	.
4dd#	8r	8r	4BB
.	8f#	8a	.
=2	=2	=2	=2
8ee	8r	8r	4E
8b	8g#	8g#	.
2b	8r	8r	4G#
.	8b	8B	.
.	8r	8r	4F#
.	8a	8d#	.
4dd#	8r	8r	4BB
.	8f#	8a	.
=3	=3	=3	=3
16ee	4B	4g#	4E
16dd#	.	.	.
16ff#	.	.	.
16ee	.	.	.
16gg#	2.r	2.r	2.r
16ff#	.	.	.
16ee	.	.	.
16dd#	.	.	.
16cc#	.	.	.
16b	.	.	.
16a	.	.	.
16g#	.	.	.
16f#	.	.	.
16e	.	.	.
16d#	.	.	.
16e	.	.	.
=4	=4	=4	=4
4cc#	4a	4e	4AA
4b	4g#	4e	4E
2r	2r	2r	2r
=5	=5	=5	=5
[2a	8r	8r	4F#
.	8a	8c#	.
.	8r	8r	4E
.	8a	8c#	.
8a]	8r	8r	4D#
8a	8a	8B	.
8cc#	8r	8r	4D#
8a	8a	8B	.
=6	=6	=6	=6
[2g#	8r	8r	4E
.	8g#	8B	.
.	8r	8r	4D#
.	8g#	8B	.
8g#]	8r	8r	4C#
8g#	8g#	8e	.
8ee	8r	8r	4GG#
8g#	8e	8B	.
=7	=7	=7	=7
4.f#	8r	8r	4AA
.	8c#	8A	.
.	8r	8r	4AA
16g#	8c#	8A	.
16a	.	.	.
4c#	8r	8r	4AA
.	8c#	8A	.
4d#	8r	8r	4BB
.	8A	8F#	.
=8	=8	=8	=8
4e	8r	8r	4E
.	8G#	8E	.
2.r	8r	8r	4AA
.	8e	8c#	.
.	8r	8r	4GG#
.	8e	8B	.
.	8r	8r	4FF#
.	8d#	8A	.
=9	=9	=9	=9
2.b	16r	4G#	4EE
.	16e	.	.
.	16g#	.	.
.	16e	.	.
.	16r	4e	4G#
.	16B	.	.
.	16b	.	.
.	16g#	.	.
.	16r	4d#	4F#
.	16B	.	.
.	16a	.	.
.	16f#	.	.
4dd#	16r	4a	4BB
.	16f#	.	.
.	16a	.	.
.	16f#	.	.
=10	=10	=10	=10
8ee	16r	4g#	4EE
.	16B	.	.
8b	16g#	.	.
.	16e	.	.
2b	16r	4e	4G#
.	16B	.	.
.	16b	.	.
.	16g#	.	.
.	16r	4d#	4F#
.	16B	.	.
.	16a	.	.
.	16f#	.	.
4dd#	16r	4a	4BB
.	16f#	.	.
.	16a	.	.
.	16f#	.	.
=11	=11	=11	=11
2ee	16r	2g#	4E
.	16B	.	.
.	16g#	.	.
.	16e	.	.
.	16r	.	4E
.	16B	.	.
.	16g#	.	.
.	16e	.	.
2dd#	16r	2b	4E
.	16B	.	.
.	16g#	.	.
.	16e	.	.
.	16r	.	4E
.	16B	.	.
.	16g#	.	.
.	16e	.	.
=12	=12	=12	=12
2cc#	16r	2a	4E
.	16c#	.	.
.	16a	.	.
.	16e	.	.
.	16r	.	4E
.	16c#	.	.
.	16a	.	.
.	16e	.	.
4.a	16r	2f#	4E
.	16d#	.	.
.	16a	.	.
.	16f#	.	.
.	16r	.	4E
.	16d#	.	.
16g#	16a	.	.
16a	16f#	.	.
=13	=13	=13	=13
8g#	4e	4g#	4E
16a	.	.	.
16b	.	.	.
16cc#	2.r	2.r	2.r
16dd#	.	.	.
16ee	.	.	.
16dd#	.	.	.
16ff#	.	.	.
16ee	.	.	.
16gg#	.	.	.
16ff#	.	.	.
16ee	.	.	.
16g#	.	.	.
16a	.	.	.
16a#	.	.	.
=14	=14	=14	=14
8.b	4g#	4e	2BB
32a	.	.	.
32g#	.	.	.
8f#	4f#	4d#	.
2r	.	.	.
.	16r	2r	4BB
.	16d#	.	.
.	16f#	.	.
.	16B	.	.
.	16r	.	4C#
.	16e	.	.
8r	16c#	.	.
.	16A#	.	.
=15	=15	=15	=15
2.ff#	16B	2.B	4D#
.	16B	.	.
.	16f#	.	.
.	16d#	.	.
.	16f#	.	4DD#
.	16d#	.	.
.	16e	.	.
.	16c#	.	.
.	16d#	.	4r
.	16B	.	.
.	16c#	.	.
.	16A#	.	.
4ff##	16B	[4B	4D#
.	16c#	.	.
.	16B	.	.
.	16A	.	.
=16	=16	=16	=16
2.gg#	16G#	4B]	4E
.	16e	.	.
.	16g#	.	.
.	16e	.	.
.	16g#	4B#	4EE
.	16e	.	.
.	16f#	.	.
.	16d#	.	.
.	16e	4c#	4r
.	16c#	.	.
.	16d#	.	.
.	16B#	.	.
4b	16c#	4g#	4E
.	16c#	.	.
.	16g#	.	.
.	16e	.	.
=17	=17	=17	=17
4a#	16r	4f#	4F#
.	16c#	.	.
.	16a#	.	.
.	16f#	.	.
4ff#	16r	4a#	4F#
.	16c#	.	.
.	16a#	.	.
.	16f#	.	.
4ee#	16r	4b	4F#
.	16d	.	.
.	16b	.	.
.	16g#	.	.
4b	16r	4d	4F#
.	16d	.	.
.	16b	.	.
.	16g#	.	.
=18	=18	=18	=18
4a#	16r	4c#	4F#
.	16c#	.	.
.	16a#	.	.
.	16f#	.	.
4ff#	16r	4a#	4F#
.	16c#	.	.
.	16a#	.	.
.	16f#	.	.
4ee#	16r	4b	4F#
.	16d	.	.
.	16b	.	.
.	16g#	.	.
4b	16r	4d	4F#
.	16d	.	.
.	16b	.	.
.	16g#	.	.
=19	=19	=19	=19
4a#	16r	4c#	4F#
.	16c#	.	.
.	16a#	.	.
.	16f#	.	.
4cc#	16r	4a#	4F#
.	16c#	.	.
.	16a#	.	.
.	16f#	.	.
4ee	16r	4a#	4F#
.	16c#	.	.
.	16a#	.	.
.	16f#	.	.
4ee	16r	4a#	4F#
.	16c#	.	.
.	16a#	.	.
.	16f#	.	.
=20	=20	=20	=20
[4ee	4a#	4cc#	4F#
24ee]	2.r	2.r	2.r
24aa#	.	.	.
24ccc#	.	.	.
24eee	.	.	.
24ccc#	.	.	.
24aa#	.	.	.
8ee	.	.	.
4.r	.	.	.
=21	=21	=21	=21
2fff#	16r	2B	4D#
.	16B	.	.
.	16b	.	.
.	16f#	.	.
.	16r	.	4D#
.	16B	.	.
.	16b	.	.
.	16f#	.	.
4.A	16r	2f#	4D#
.	16B	.	.
.	16a	.	.
.	16f#	.	.
.	16r	.	4D#
.	16B	.	.
16B	16a	.	.
16A	16f#	.	.
=22	=22	=22	=22
4G#	16r	4e	4E
.	16B	.	.
.	16g#	.	.
.	16e	.	.
[4gg#	16r	4e	4E
.	16B	.	.
.	16g#	.	.
.	16e	.	.
16gg#]	4c#	4e	4E
16ff##	.	.	.
16gg#	.	.	.
16ff##	.	.	.
16gg#	4r	4r	4r
16ff##	.	.	.
16gg#	.	.	.
16aa#	.	.	.
=23	=23	=23	=23
16bb	1r	1r	1r
16ff##	.	.	.
16gg#	.	.	.
16aa#	.	.	.
16bb	.	.	.
16dd#	.	.	.
16ee	.	.	.
16ff#	.	.	.
16gg#	.	.	.
16b#	.	.	.
16cc#	.	.	.
16dd#	.	.	.
16ee	.	.	.
16b#	.	.	.
16cc#	.	.	.
16e#	.	.	.
=24	=24	=24	=24
2f#	16r	4d#	4F#
.	16d#	.	.
.	16b	.	.
.	16f#	.	.
.	16r	4b	4F#
.	16d#	.	.
.	16b	.	.
.	16f#	.	.
2cc#	16r	4c#	4F#
.	16c#	.	.
.	16a#	.	.
.	16e	.	.
.	16r	4a#	4F#
.	16c#	.	.
.	16a#	.	.
.	16e	.	.
=25	=25	=25	=25
[2b	16r	4b	4BB
.	16d#	.	.
.	16b	.	.
.	16f#	.	.
.	16r	4a	4D#
.	16B	.	.
.	16a	.	.
.	16f#	.	.
16b]	4g#	4g#	4E
16ff##	.	.	.
16gg#	.	.	.
16ee	.	.	.
16dd#	8r	8r	4F#
16cc#	.	.	.
16b	8e	8c#	.
16a#	.	.	.
=26	=26	=26	=26
[2b	16r	4B	4BB
.	16d#	.	.
.	16b	.	.
.	16f#	.	.
.	16r	4a	4D#
.	16B	.	.
.	16a	.	.
.	16f#	.	.
16b]	4g#	4g#	4E
16f##	.	.	.
16g#	.	.	.
16e	.	.	.
16d#	8r	8r	4F#
16c#	.	.	.
16B	8e	8c#	.
16A#	.	.	.
=27	=27	=27	=27
2A#	2e	2c#	[2BB
4B	4d#	4B	4BB]
4r	4r	4r	4r
=28	=28	=28	=28
2.b	8r	8r	4E
.	8g#	8B	.
.	8r	8r	4G#
.	8b	8B	.
.	8r	8r	4F#
.	8a	8d#	.
4dd#	8r	8r	4BB
.	8f#	8a	.
=29	=29	=29	=29
8ee	8r	8r	4E
8b	8g#	8g#	.
4.b	8r	8r	4G#
.	8b	8B	.
.	8r	8r	4F#
16aa	8a	8d#	.
16gg#	.	.	.
16aa	8r	8r	4BB
16ff#	.	.	.
16ee	8f#	8a	.
16dd#	.	.	.
=30	=30	=30	=30
16ee	4B	4g#	4E
16G#	.	.	.
16B	.	.	.
16e	.	.	.
16g#	2.r	2.r	2.r
16b	.	.	.
16ee	.	.	.
16gg#	.	.	.
16bb	.	.	.
16gg#	.	.	.
16ff#	.	.	.
16ee	.	.	.
32dd#	.	.	.
32ee	.	.	.
32dd#	.	.	.
32ee	.	.	.
32dd#	.	.	.
32ee	.	.	.
32dd#	.	.	.
32ee	.	.	.
=31	=31	=31	=31
4cc#	4a	4e	4AA
4b	4g#	4e	4E
2r	2r	2r	2r
=32	=32	=32	=32
[2a	8r	8r	4F#
.	8a	8c#	.
.	8r	8r	4E
.	8a	8c#	.
8a]	8r	8r	4D#
16ff#	8a	8B	.
16dd#	.	.	.
16aa	8r	8r	4D#
16ff#	.	.	.
16dd#	8a	8B	.
16a	.	.	.
=33	=33	=33	=33
8a	8r	8r	4E
8g#	8g#	8B	.
[4g#	8r	8r	4D#
.	8g#	8B	.
16g#]	8r	8r	4C#
32a	.	.	.
32b	.	.	.
32cc#	8g#	8e	.
32dd#	.	.	.
32ee	.	.	.
32ff#	.	.	.
16gg#	8r	8r	4GG#
16ee	.	.	.
16b	8e	8B	.
16g#	.	.	.
=34	=34	=34	=34
8f#	8r	8r	4AA
16g#	8f#	8c#	.
16a	.	.	.
8a	8r	8r	4AA
16b	8f#	8c#	.
16cc#	.	.	.
8cc#	8r	8r	4AA
16c#	8f#	8c#	.
16a	.	.	.
8a	8r	8r	4BB
16.f#	8A	8F#	.
32d#	.	.	.
=35	=35	=35	=35
4d#	4A	4F#	[4EE
8e	8G#	8E	8EE]
2r	4r	8c#	8A
.	.	4B	4G#
.	8e	.	.
.	8r	4A	4F#
8r	8d#	.	.
=36	=36	=36	=36
2.b	16r	4G#	4E
.	16e	.	.
.	16g#	.	.
.	16B	.	.
.	16r	4e	4G#
.	16B	.	.
.	16b	.	.
.	16g#	.	.
.	16r	4d#	4F#
.	16B	.	.
.	16a	.	.
.	16f#	.	.
4dd#	16r	4a	4BB
.	16f#	.	.
.	16a	.	.
.	16f#	.	.
=37	=37	=37	=37
8ee	16r	4g#	4E
.	16B	.	.
8b	16g#	.	.
.	16e	.	.
[4b	16r	4e	4G#
.	16B	.	.
.	16b	.	.
.	16g#	.	.
24b]	16r	4d#	4F#
24dd#	.	.	.
.	16B	.	.
24ff#	.	.	.
24aa	16d#	.	.
24gg#	.	.	.
.	16f#	.	.
24ff#	.	.	.
24ccc#	16r	4a	4BB
24bb	.	.	.
.	16f#	.	.
24aa	.	.	.
24ff#	16a	.	.
24ee	.	.	.
.	16f#	.	.
24dd#	.	.	.
=38	=38	=38	=38
2ee	16r	2g#	4E
.	16B	.	.
.	16g#	.	.
.	16e	.	.
.	16r	.	4E
.	16B	.	.
.	16g#	.	.
.	16e	.	.
2ddd	16r	2b	4E
.	16B	.	.
.	16g#	.	.
.	16e	.	.
.	16r	.	4E
.	16B	.	.
.	16g#	.	.
.	16e	.	.
=39	=39	=39	=39
2ccc#	16r	2a	4E
.	16c#	.	.
.	16a	.	.
.	16e	.	.
.	16r	.	4E
.	16c#	.	.
.	16a	.	.
.	16e	.	.
2aa	16r	2f#	4E
.	16d#	.	.
.	16a	.	.
.	16f#	.	.
.	16r	.	4E
.	16d#	.	.
.	16a	.	.
.	16f#	.	.
=40	=40	=40	=40
16gg#	4e	4g#	4E
16bb	.	.	.
16aa	.	.	.
16gg#	.	.	.
16aa	2r	2r	2r
16bb	.	.	.
16ccc#	.	.	.
16ddd#	.	.	.
16ee	.	.	.
16b	.	.	.
16gg#	.	.	.
16ee	.	.	.
8.bb	8.g#	4B	4E
16g#	16e	.	.
=41	=41	=41	=41
4g#	4e	2B	4BB
4f#	4d#	.	4B
2r	16r	2r	4BB
.	16d#	.	.
.	16f#	.	.
.	16B	.	.
.	16r	.	4C#
.	16e	.	.
.	16c#	.	.
.	16A#	.	.
=42	=42	=42	=42
[2ff#	16r	2B	4D#
.	16B	.	.
.	16f#	.	.
.	16d#	.	.
.	16f#	.	4DD#
.	16d#	.	.
.	16e	.	.
.	16c#	.	.
16ff#]	16d#	4r	4r
16dd#	16B	.	.
16ee	16c#	.	.
16cc#	16A#	.	.
16b	[4B	[4B	4D#
16bb	.	.	.
16b	.	.	.
16aa	.	.	.
=43	=43	=43	=43
8ff##	16B]	4B]	4E
.	16e	.	.
8gg#	16g#	.	.
.	16e	.	.
[4gg#	16g#	4B#	4EE
.	16e	.	.
.	16f#	.	.
.	16d#	.	.
16gg#]	16e	4c#	4r
16ee	16c#	.	.
16eee	16d#	.	.
16eee	16B#	.	.
16eee	16c#	4g#	4E
16ddd#	16c#	.	.
16ccc#	16g#	.	.
16bb	16c#	.	.
=44	=44	=44	=44
4aa#	16r	4f#	4F#
.	16c#	.	.
.	16a#	.	.
.	16f#	.	.
4ff#	16r	4a#	4F#
.	16c#	.	.
.	16a#	.	.
.	16f#	.	.
4ee#	16r	4b	4F#
.	16d	.	.
.	16b	.	.
.	16g#	.	.
4b	16r	4d	4F#
.	16d	.	.
.	16b	.	.
.	16g#	.	.
=45	=45	=45	=45
4a#	16r	4c#	4F#
.	16c#	.	.
.	16a#	.	.
.	16f#	.	.
4ff#	16r	4a#	4F#
.	16c#	.	.
.	16a#	.	.
.	16f#	.	.
8ee#	16r	4b	4F#
.	16d	.	.
8ddd	16b	.	.
.	16g#	.	.
8ccc#	16r	4d	4F#
.	16d	.	.
8bb	16b	.	.
.	16g#	.	.
=46	=46	=46	=46
16aa#	16r	4c#	4F#
16bb	16c#	.	.
16ccc#	16a#	.	.
16aa#	16f#	.	.
8ee	16r	4a#	4F#
.	16c#	.	.
8ee	16a#	.	.
.	16f#	.	.
[8ee	16r	4a#	4F#
.	16c#	.	.
32ee]	16a#	.	.
32ff#	.	.	.
32gg#	16f#	.	.
32ff#	.	.	.
8ee	16r	4a#	4F#
.	16c#	.	.
8ee	16a#	.	.
.	16f#	.	.
=47	=47	=47	=47
2.eee	4a#	4cc#	4F#
.	2.r	2.r	2.r
4ee	.	.	.
=48	=48	=48	=48
2fff#	16r	2B	4D#
.	16B	.	.
.	16b	.	.
.	16f#	.	.
.	16r	.	4D#
.	16B	.	.
.	16b	.	.
.	16f#	.	.
4.A	16r	2f#	4D#
.	16B	.	.
.	16a	.	.
.	16f#	.	.
.	16r	.	4D#
.	16B	.	.
16B	16a	.	.
16A	16f#	.	.
=49	=49	=49	=49
4G#	16r	4e	4E
.	16B	.	.
.	16g#	.	.
.	16e	.	.
[4gg#	16r	4e	4E
.	16B	.	.
.	16g#	.	.
.	16e	.	.
24gg#]	4c#	4e	4E
24aa#	.	.	.
24ff##	.	.	.
24gg#	.	.	.
24aa#	.	.	.
24ff##	.	.	.
24gg#	4r	4r	4r
24aa#	.	.	.
24ff##	.	.	.
24gg#	.	.	.
24bb	.	.	.
24aa#	.	.	.
=50	=50	=50	=50
24bb	1r	1r	1r
24dd#	.	.	.
24ee	.	.	.
24ff#	.	.	.
24gg#	.	.	.
24aa#	.	.	.
24bb	.	.	.
24b	.	.	.
24cc#	.	.	.
24dd#	.	.	.
24ee	.	.	.
24ff#	.	.	.
24gg#	.	.	.
24g#	.	.	.
24a#	.	.	.
24b	.	.	.
24cc#	.	.	.
24dd#	.	.	.
24ee	.	.	.
24dd#	.	.	.
24cc#	.	.	.
24b	.	.	.
24a#	.	.	.
24g#	.	.	.
=51	=51	=51	=51
16f#	16r	2d#	4F#
16b	16d#	.	.
16dd#	16b	.	.
16ff#	16f#	.	.
16bb	16r	.	4F#
16ddd#	16d#	.	.
16fff#	16b	.	.
16r	16f#	.	.
2cc#	16r	4e	4F#
.	16c#	.	.
.	16a#	.	.
.	16e	.	.
.	16r	4A#	4F#
.	16c#	.	.
.	16a#	.	.
.	16e	.	.
=52	=52	=52	=52
2.ff#	16r	4B	4BB
.	16d#	.	.
.	16b	.	.
.	16f#	.	.
.	16r	4B	4D#
.	16f#	.	.
.	16ff#	.	.
.	16dd#	.	.
.	16r	4A#	4C#
.	16f#	.	.
.	16ee	.	.
.	16cc#	.	.
4aa#	16r	4e	4FF#
.	16f#	.	.
.	16ee	.	.
.	16cc#	.	.
=53	=53	=53	=53
8bb	16r	4d#	4BB
.	16f#	.	.
8ff#	16dd#	.	.
.	16b	.	.
2ff#	16r	4B	4D#
.	16f#	.	.
.	16ff#	.	.
.	16dd#	.	.
.	16r	4A#	4C#
.	16f#	.	.
.	16ee	.	.
.	16cc#	.	.
4aa#	16r	4e	4F#
.	16cc#	.	.
.	16ee	.	.
.	16cc#	.	.
=54	=54	=54	=54
[2bb	16r	4d	4B
.	16f#	.	.
.	16dd	.	.
.	16b	.	.
.	16r	4f#	4B
.	16f#	.	.
.	16dd	.	.
.	16b	.	.
8bb]	16r	2dd	4B
.	16f#	.	.
8aa	16dd	.	.
.	16b	.	.
8gg#	16r	.	4B
.	16f#	.	.
8ff#	16dd	.	.
.	16b	.	.
=55	=55	=55	=55
1ee#	16r	4cc#	4B
.	16g#	.	.
.	16cc#	.	.
.	16c#	.	.
.	16r	4g#	4B
.	16g#	.	.
.	16cc#	.	.
.	16c#	.	.
.	16r	4e#	4B
.	16g#	.	.
.	16cc#	.	.
.	16c#	.	.
.	16r	4c#	4B
.	16g#	.	.
.	16cc#	.	.
.	16c#	.	.
=56	=56	=56	=56
1ff#	16r	4cc#	4A
.	16c#	.	.
.	16cc#	.	.
.	16a	.	.
.	16r	4a	4A
.	16c#	.	.
.	16cc#	.	.
.	16a	.	.
.	16r	4f#	4A
.	16c#	.	.
.	16cc#	.	.
.	16a	.	.
.	16r	4c#	4A
.	16c#	.	.
.	16cc#	.	.
.	16a	.	.
=57	=57	=57	=57
1gg	16r	4ee	4A
.	16e	.	.
.	16cc#	.	.
.	16g	.	.
.	16r	4cc#	4A
.	16e	.	.
.	16cc#	.	.
.	16g	.	.
.	16r	4g	4A
.	16e	.	.
.	16cc#	.	.
.	16g	.	.
.	16r	4e	4A
.	16e	.	.
.	16cc#	.	.
.	16g	.	.
=58	=58	=58	=58
[2gg#	16r	4ee	4G#
.	16e	.	.
.	16cc#	.	.
.	16g#	.	.
.	16r	4cc#	4G#
.	16e	.	.
.	16cc#	.	.
.	16g#	.	.
4gg#]	16r	4g#	4G#
.	16e	.	.
.	16cc#	.	.
.	16g#	.	.
16ff#	16r	4e	4G#
16ee	16e	.	.
16dd#	16cc#	.	.
16cc#	16g#	.	.
=59	=59	=59	=59
16cc#	16r	4g#	4G#
16b#	16d#	.	.
16ee	16b#	.	.
16dd#	16g#	.	.
2.dd#	16r	2B#	4G#
.	16d#	.	.
.	16b#	.	.
.	16g#	.	.
.	16r	.	4G#
.	16d#	.	.
.	16b#	.	.
.	16g#	.	.
.	16r	4d#	4F#
.	16d#	.	.
.	16b#	.	.
.	16g#	.	.
=60	=60	=60	=60
2.gg#	16r	4c#	4E
.	16c#	.	.
.	16cc#	.	.
.	16g#	.	.
.	16r	4g#	4E
.	16c#	.	.
.	16cc#	.	.
.	16g#	.	.
.	16r	[2cc#	4E#
.	16c#	.	.
.	16b	.	.
.	16g#	.	.
8cc#	16r	.	4E#
.	16g#	.	.
8bb	16b	.	.
.	16g#	.	.
=61	=61	=61	=61
8aa	16r	4cc#]	4F#
.	16c#	.	.
16gg#	16a	.	.
16ff#	16f#	.	.
2ff#	16r	4a	4F#
.	16c#	.	.
.	16a	.	.
.	16f#	.	.
.	16r	[2b	4D#
.	16B	.	.
.	16a	.	.
.	16f#	.	.
8b	16r	.	4D#
.	16f#	.	.
8aa	16a	.	.
.	16f#	.	.
=62	=62	=62	=62
8gg#	16r	4b]	4E
.	16B	.	.
16ff#	16g#	.	.
16ee	16e	.	.
2ee	16r	4g#	4E
.	16B	.	.
.	16g#	.	.
.	16e	.	.
.	16r	4e	4G#
.	16e	.	.
.	16b	.	.
.	16e	.	.
4dd	16r	4B	4G#
.	16e	.	.
.	16b	.	.
.	16e	.	.
=63	=63	=63	=63
4cc#	16r	2A	4A
.	16e	.	.
.	16cc#	.	.
.	16a	.	.
2ccc#	16r	.	4A
.	16e	.	.
.	16cc#	.	.
.	16a	.	.
.	16r	2f#	4A#
.	16e	.	.
.	16cc#	.	.
.	16a#	.	.
4ee	16r	.	4A#
.	16e	.	.
.	16cc#	.	.
.	16a#	.	.
=64	=64	=64	=64
8dd#	16r	2.f#	4B
.	16d#	.	.
16cc#	16b	.	.
16b	16f#	.	.
4b	16r	.	4B
.	16d#	.	.
.	16b	.	.
.	16f#	.	.
2r	16r	.	4A
.	16d#	.	.
.	16b	.	.
.	16f#	.	.
.	16r	8g#	4A
.	16d#	.	.
.	16b	8a	.
.	16f#	.	.
=65	=65	=65	=65
2.b	16r	4b	4G#
.	16e	.	.
.	16b	.	.
.	16g#	.	.
.	16b	2E	4GG#
.	16g#	.	.
.	16a	.	.
.	16f#	.	.
.	16g#	.	4GG#
.	16e	.	.
.	16f#	.	.
.	16d#	.	.
4b#	16e	[4E	4GG#
.	16f#	.	.
.	16e	.	.
.	16d	.	.
=66	=66	=66	=66
2.cc#	16c#	4E]	2AA
.	16a	.	.
.	16cc#	.	.
.	16a	.	.
.	16cc#	4E#	.
.	16a	.	.
.	16b	.	.
.	16g#	.	.
.	16a	[2F#	4r
.	16f#	.	.
.	16g#	.	.
.	16e#	.	.
4cc##	16f#	.	4AA#
.	16g#	.	.
.	16f#	.	.
.	16e	.	.
=67	=67	=67	=67
1dd#	16d#	4F#]	2BB
.	16b	.	.
.	16dd#	.	.
.	16b	.	.
.	16dd#	4F##	.
.	16b	.	.
.	16cc#	.	.
.	16a#	.	.
.	16b	[2G#	4r
.	16g#	.	.
.	16a#	.	.
.	16f##	.	.
.	16g#	.	4BB#
.	16a#	.	.
.	16g#	.	.
.	16f#	.	.
=68	=68	=68	=68
1ee	16e	4G#]	4C#
.	16g#	.	.
.	16ee	.	.
.	16g#	.	.
.	16r	4E	4C#
.	16a	.	.
.	16ee	.	.
.	16a	.	.
.	16r	4e	4C#
.	16a#	.	.
.	16ee	.	.
.	16a#	.	.
.	16r	4e	4C#
.	16a#	.	.
.	16ee	.	.
.	16a#	.	.
=69	=69	=69	=69
4dd#	16r	4f#	4BB
.	16b	.	.
.	16dd#	.	.
.	16f#	.	.
4bb	16r	4dd#	4BB
.	16f#	.	.
.	16dd#	.	.
.	16b	.	.
4aa#	16r	4ee	4BB
.	16g	.	.
.	16ee	.	.
.	16cc#	.	.
4ee	16r	4g	4BB
.	16g	.	.
.	16ee	.	.
.	16cc#	.	.
=70	=70	=70	=70
4dd#	16r	4f#	4BB
.	16f#	.	.
.	16dd#	.	.
.	16b	.	.
4bb	16r	4dd#	4BB
.	16f#	.	.
.	16dd#	.	.
.	16b	.	.
4aa#	16r	4ee	4BB
.	16g	.	.
.	16ee	.	.
.	16cc#	.	.
4ee	16r	4g	4BB
.	16g	.	.
.	16ee	.	.
.	16cc#	.	.
=71	=71	=71	=71
4dd#	16r	4f#	4BB
.	16f#	.	.
.	16dd#	.	.
.	16b	.	.
4ff#	16r	4f#	4BB
.	16f#	.	.
.	16dd#	.	.
.	16b	.	.
4aa	16r	4f#	4BB
.	16f#	.	.
.	16dd#	.	.
.	16b	.	.
4aa	16r	4f#	4BB
.	16f#	.	.
.	16dd#	.	.
.	16b	.	.
=72	=72	=72	=72
4.aa	4dd#	4f#	4BB
.	2.r	2.r	2.r
16bb	.	.	.
16ccc#	.	.	.
4bb	.	.	.
4aa	.	.	.
=73	=73	=73	=73
[1gg	16r	[1e	4E
.	16B	.	.
.	16g	.	.
.	16e	.	.
.	16r	.	4E
.	16B	.	.
.	16g	.	.
.	16e	.	.
.	16r	.	4D
.	16B	.	.
.	16g	.	.
.	16e	.	.
.	16r	.	4D
.	16B	.	.
.	16g	.	.
.	16e	.	.
=74	=74	=74	=74
2gg]	16r	2e]	4C
.	16A#	.	.
.	16g	.	.
.	16e	.	.
.	16r	.	4C
.	16A#	.	.
.	16g	.	.
.	16e	.	.
4ff#	16r	4f#	4C
.	16A#	.	.
.	16f#	.	.
.	16e	.	.
4ee	16r	4g	4C
.	16A#	.	.
.	16g	.	.
.	16e	.	.
=75	=75	=75	=75
[2bb	16r	[1g#	4BB
.	16B	.	.
.	16g#	.	.
.	16e	.	.
.	16r	.	4BB
.	16B	.	.
.	16g#	.	.
.	16e	.	.
8bb]	16r	.	4BB
.	16B	.	.
8ccc#	16g#	.	.
.	16e	.	.
8ddd#	16r	.	4BB
.	16B	.	.
8eee	16g#	.	.
.	16e	.	.
=76	=76	=76	=76
2b	16r	4g#]	4BB
.	16g#	.	.
.	16b	.	.
.	16e	.	.
.	16r	4ee	4BB
.	16b	.	.
.	16ee	.	.
.	16g#	.	.
2ff#	16r	4f#	4BB
.	16f#	.	.
.	16dd#	.	.
.	16a	.	.
.	16r	4dd#	4BB
.	16f#	.	.
.	16dd#	.	.
.	16a	.	.
=77	=77	=77	=77
[2ee	16r	4e	4E
.	16g#	.	.
.	16ee	.	.
.	16b	.	.
.	16r	4dd	4G#
.	16e	.	.
.	16dd	.	.
.	16b#	.	.
16ee]	4cc#	4cc#	4A
16bb#	.	.	.
16ccc#	.	.	.
16aa	.	.	.
16gg#	8r	8r	4B
16ff#	.	.	.
16ee	8a	8a	.
16dd#	.	.	.
=78	=78	=78	=78
[2ee	16r	4g#	4E
.	16g#	.	.
.	16ee	.	.
.	16b	.	.
.	16r	4dd	4GG#
.	16e	.	.
.	16dd	.	.
.	16b#	.	.
16ee]	4cc#	4cc#	4AA
16b#	.	.	.
16cc#	.	.	.
16a	.	.	.
16g#	8r	8r	4BB
16f#	.	.	.
16e	8A	8F#	.
16d#	.	.	.
=79	=79	=79	=79
2d#	2A	2F#	[2EE
4e	4G#	4E	4EE]
4r	4r	4r	4r
==	==	==	==
*-	*-	*-	*-
!!!RWG1: This file contains only pitch and duration data.
!!!RWG2: Transposing instruments are not transposed.
!!!RWG3: Spines may have incompatible meters.
!!!RWG4: Durations of rests and tied notes may be interpreted.
!!!RWG: Key is interpreted using the Humdrum key tool.
!!!GTL: 6 Divertimentos ("Sun")
!!!AFT: stage1
!!!END: 1997/04/15
!!format changes:
!!content changes:
!!public access: complete
!!!KEY: 1906484277
!!!EMD: Converted from MuseData to Humdrum Dec 16, 2000, by Andreas Kornstaedt using muse2kern.
